packages/tokens/icons/handsAndHeart/size24Px.svg

<svg viewBox="0 0 24 24" fill="none" xmlns="http://www.w3.org/2000/svg" width="1em" height="1em"><path d="M14 19L17.7347 16.5102C18.1574 16.2284 18.7284 16.3426 19.0102 16.7653V16.7653C19.2839 17.1758 19.1849 17.7292 18.7859 18.0194L14.263 21.3087C14.0921 21.433 13.8862 21.5 13.6748 21.5H6.5V16.5L7.47446 16.1752C7.81835 16.0606 8.18692 16.0415 8.54078 16.1202L11.699 16.822C12.167 16.926 12.5 17.3411 12.5 17.8206V17.8206C12.5 18.4431 11.9487 18.9212 11.3324 18.8332L9 18.5" stroke="currentColor" stroke-linecap="round"/><path d="M12.235 17.076C12.0008 17.2224 11.9296 17.5308 12.076 17.765C12.2224 17.9992 12.5308 18.0704 12.765 17.924L12.235 17.076ZM17.3079 16.2119L16.8919 16.4893L17.3079 16.2119ZM17.916 16.2226L17.724 15.9346L16.8919 16.4893L17.084 16.7774L17.916 16.2226ZM14.9999 15.348L12.235 17.076L12.765 17.924L15.5299 16.196L14.9999 15.348ZM17.724 15.9346C17.124 15.0345 15.9171 14.7747 14.9999 15.348L15.5299 16.196C15.9885 15.9093 16.5919 16.0393 16.8919 16.4893L17.724 15.9346Z" fill="currentColor"/><path d="M3.5 17C3.5 16.7239 3.72386 16.5 4 16.5H6C6.27614 16.5 6.5 16.7239 6.5 17V21C6.5 21.2761 6.27614 21.5 6 21.5H4C3.72386 21.5 3.5 21.2761 3.5 21L3.5 17Z" stroke="currentColor"/><path d="M18.5 4C18.5 3.72386 18.7239 3.5 19 3.5H21C21.2761 3.5 21.5 3.72386 21.5 4V8C21.5 8.27614 21.2761 8.5 21 8.5H19C18.7239 8.5 18.5 8.27614 18.5 8V4Z" stroke="currentColor"/><path d="M18.5 3.5L19 3.5V3H18.5V3.5ZM11.5 6L11.6581 5.52566C11.4784 5.46577 11.2804 5.51253 11.1464 5.64645L11.5 6ZM13 6.5L13.4472 6.27639C13.3879 6.15778 13.2839 6.06759 13.1581 6.02566L13 6.5ZM13.5 7.5L13.8536 7.85355C14.0057 7.70137 14.0435 7.46889 13.9472 7.27639L13.5 7.5ZM16 8.5V8C15.8806 8 15.7652 8.0427 15.6746 8.12037L16 8.5ZM18.5 8.5V9H19V8.5H18.5ZM8.348 5.8603L7.88732 5.66595L8.348 5.8603ZM18.5 3L11.3284 3V4L18.5 4V3ZM9.56066 3.73223L8.42296 4.86993L9.13007 5.57704L10.2678 4.43934L9.56066 3.73223ZM7.88732 5.66595L7.19557 7.30565L8.11693 7.69435L8.80868 6.05465L7.88732 5.66595ZM10.8536 7.35355L11.8536 6.35355L11.1464 5.64645L10.1464 6.64645L10.8536 7.35355ZM11.3419 6.47434L12.8419 6.97434L13.1581 6.02566L11.6581 5.52566L11.3419 6.47434ZM12.5528 6.72361L13.0528 7.72361L13.9472 7.27639L13.4472 6.27639L12.5528 6.72361ZM13.1464 7.14645L11.4252 8.86764L12.1324 9.57475L13.8536 7.85355L13.1464 7.14645ZM13.5998 11.2159L16.3254 8.87963L15.6746 8.12037L12.949 10.4566L13.5998 11.2159ZM16 9H18.5V8H16V9ZM18 3.5V8.5H19V3.5L18 3.5ZM11.4253 11.1324C12.0169 11.7241 12.9644 11.7604 13.5998 11.2159L12.949 10.4566C12.7104 10.6611 12.3546 10.6475 12.1324 10.4253L11.4253 11.1324ZM11.4252 8.86764C10.7999 9.49303 10.7999 10.507 11.4253 11.1324L12.1324 10.4253C11.8975 10.1904 11.8975 9.80961 12.1324 9.57475L11.4252 8.86764ZM8.42296 4.86993C8.19469 5.0982 8.0128 5.36852 7.88732 5.66595L8.80868 6.05465C8.88397 5.87619 8.99311 5.714 9.13007 5.57704L8.42296 4.86993ZM11.3284 3C10.6654 3 10.0295 3.26339 9.56066 3.73223L10.2678 4.43934C10.5491 4.15804 10.9306 4 11.3284 4V3Z" fill="currentColor"/><path d="M12.3559 7.95258L12 8.30309L11.6441 7.95258C10.2888 6.61702 8.16535 6.69539 6.90145 8.12757C5.63755 9.55975 5.71171 11.8041 7.06722 13.1391L7.0798 13.1515L10.5 16.5M12.5222 17.5L13.5222 16.5L16.9203 13.1515L16.9329 13.1391C18.1236 11.9663 18.3255 10.0916 17.5 8.68237" stroke="currentColor"/></svg>

<svg xmlns="http://www.w3.org/2000/svg" fill="none" viewBox="0 0 24 24" width="1em" height="1em"><path stroke="currentColor" stroke-linecap="round" d="m14 19 3.735-2.49a.92.92 0 0 1 1.275.255v0a.92.92 0 0 1-.224 1.254l-4.523 3.29a1 1 0 0 1-.588.191H6.5v-5l.974-.325a2 2 0 0 1 1.067-.055l3.158.702c.468.104.801.52.801.999v0c0 .622-.551 1.1-1.168 1.012L9 18.5"/><path fill="currentColor" d="M12.235 17.076a.5.5 0 1 0 .53.848l-.53-.848Zm5.073-.864-.416.277.416-.277Zm.608.01-.192-.287-.832.554.192.288.832-.554ZM15 15.349l-2.765 1.728.53.848 2.765-1.728-.53-.848Zm2.724.587A2 2 0 0 0 15 15.348l.53.848a1 1 0 0 1 1.362.293l.832-.554Z"/><path stroke="currentColor" d="M3.5 17a.5.5 0 0 1 .5-.5h2a.5.5 0 0 1 .5.5v4a.5.5 0 0 1-.5.5H4a.5.5 0 0 1-.5-.5v-4Zm15-13a.5.5 0 0 1 .5-.5h2a.5.5 0 0 1 .5.5v4a.5.5 0 0 1-.5.5h-2a.5.5 0 0 1-.5-.5V4Z"/><path fill="currentColor" d="M18.5 3.5h.5V3h-.5v.5Zm-7 2.5.158-.474a.5.5 0 0 0-.512.12L11.5 6Zm1.5.5.447-.224a.5.5 0 0 0-.289-.25L13 6.5Zm.5 1 .354.354a.5.5 0 0 0 .093-.578L13.5 7.5Zm2.5 1V8a.5.5 0 0 0-.325.12L16 8.5Zm2.5 0V9h.5v-.5h-.5ZM8.348 5.86l-.46-.194.46.194ZM18.5 3h-7.172v1H18.5V3Zm-8.94.732L8.424 4.87l.707.707 1.138-1.138-.707-.707ZM7.888 5.666l-.691 1.64.92.388.693-1.64-.922-.388Zm2.967 1.688 1-1-.708-.708-1 1 .708.708Zm.488-.88 1.5.5.316-.948-1.5-.5-.316.948Zm1.21.25.5 1 .895-.448-.5-1-.894.448Zm.594.422-1.72 1.722.706.707 1.722-1.721-.708-.708Zm.454 4.07 2.725-2.336-.65-.76-2.726 2.337.65.759ZM16 9h2.5V8H16v1Zm2-5.5v5h1v-5h-1Zm-6.575 7.632c.592.592 1.54.628 2.175.084l-.651-.76a.601.601 0 0 1-.817-.03l-.707.706Zm0-2.264a1.602 1.602 0 0 0 0 2.264l.707-.707a.601.601 0 0 1 0-.85l-.707-.707ZM8.423 4.87a2.5 2.5 0 0 0-.536.796l.922.389a1.5 1.5 0 0 1 .321-.478l-.707-.707ZM11.328 3a2.5 2.5 0 0 0-1.767.732l.707.707A1.5 1.5 0 0 1 11.328 4V3Z"/><path stroke="currentColor" d="m12.356 7.953-.356.35-.356-.35c-1.355-1.336-3.479-1.258-4.743.175-1.263 1.432-1.19 3.676.166 5.011l.013.013L10.5 16.5m2.022 1 1-1 3.398-3.348.013-.013c1.19-1.173 1.393-3.047.567-4.457"/></svg>
